X:1
T:Polska
T:efter Carl Malmberg (SvL Skne 169)
C:Carl Gabriel Malmberg
R:Polska
Z:Patrik Mnsson, 2008-10-23 
O:Trolle-Ljungby, Skne
S:Svenska Ltar
N: Svenska Ltar Skne 169
M:3/4
L:1/16
K:D
|: A2d2 d2ef gfed | c2e2 edef g2a2 | a2ef gfef d4 |
dfaf edcB AGFE | [AD]2d2 d2ef gfed | c2e2 edef g2a2 |
a2ef gfef d2df | bgec e4 d4 :: A2a2 a2ga bagf |
e2g2 g2fg agfe | f2d2 f2a2 bagf | e2c2 e2g2 agfe |
A2d2 d2ef gfed | c2e2 edef g2a2 | a2ef gfef d2df | bgec e4 d4 :|
